X:1
T:Levita Laurentius - Gabrieli
T:#
%%score [ 1 2 3 4 ]
L:1/8
Q:1/4=200
M:none
K:F
V:1 treble nm="Soprano" snm="S"
V:2 treble nm="Alto" snm="A"
V:3 treble-8 nm="Tenor" snm="T"
V:4 bass nm="Bass" snm="B"
V:1
"^Levita Laurentius""^Andrea Gabrieli\n(c. 1510-1586)" z16 | z16 | z16 | z16 | z16 | %5
w: |||||
[M:4/2] z8 z4 c4- | c4 c4 f6 e2 | d4 c4 B4 A4 | c4 (F2 G2 A2 B2 c4) | F4 (B6 AG A2 B2) | %10
w: Bo\-|* num o- pus|o- pe- ra- tus|est, o\- * * * *|pe- ra\- * * * *|
 c4 B4 (A6 G2 | F8) c8 | d8 A4 A4 | c8 B8 | A8 z4 c4- | c4 c4 f6 e2 | d4 c4 B4 A4 | c4 A4 =B4 c4- | %18
w: * tus est, *|* le-|vi- ta Lau-|ren- ti-|us bo\-|* num o- pus|o- pe- ra- tus|est, o- pe- ra\-|
 c4 =B4 c8 | z16 | z8 z4 e4- | e4 e4 e4 f4 | e8 c8 | z16 | z4 d6 d2 c4 | B4 A4 B8 | A4 c8 c4 | %27
w: * tus est,||qui|* per si- gnum|cru- cis||cae- cos il-|lu- mi- na-|vit, qui per|
 c4 d4 c8 | A8 z8 | z8 z4 A4- | A4 A4 A4 B4 | A8 F4 B4- | B2 B2 A4 G4 F4 | (G2 F2 F2 ED E4 F4- | %34
w: si- gnum cru-|cis,|qui|* per si- gnum|cru- cis cae\-|* cos il- lu- mi-|na\- * * * * * *|
 F4) E4 F8- | F16 | z16 | z4 c4 c4 (d4- | d2 e2 f4) e4 c4 | d4 e4 f4 c4 | c4 c4 B8- | B4 A4 G8 | %42
w: * * vit,|||et the- sau\-|* * * ros Ec-|cle- si- ae de-|dit pau- pe\-|* ri- bus,|
 z4 A4 A4 (B4- | B2 c2 d4) c4 A4 | B4 c4 d4 d4 | d4 d4 (c6 BA | B4) G4 A8 | z8 z4 f4 | f4 f4 e8- | %49
w: et the- sau\-|* * * ros Ec-|cle- si- ae de-|dit pau- pe\- * *|* ri- bus,|de-|dit pau- pe\-|
 e4 d4 (c6 B2) | A8 z8 | z16 | z4 c4 c4 c4 | (A6 B2 c2 d2 c4- | c4) =B4 c4 G4 | G4 (A6 _B2 c4) | %56
w: * ri- bus, *|||de- dit pau-|pe\- * * * *|* ri- bus, et|the- sau\- * *|
 A4 F4 G4 A4 | B4 d4 d4 d4 | %58
w: ros Ec- cle- si-|ae de- dit pau-|
[Q:1/4=196] (B6[Q:1/4=193] c2[Q:1/4=191] d2[Q:1/4=189] e2[Q:1/4=186] f4- | %59
w: pe\- * * * *|
[Q:1/4=183] f2[Q:1/4=182] e[Q:1/4=181]d[Q:1/4=177] c8)[Q:1/4=171] G4 |[Q:1/4=170] A16 |] %61
w: * * * * ri-|bus.|
V:2
 z16 | z16 | z16 | F16 | G8 D4 D4 |[M:4/2] F16 | E8 D4 F4- | F4 F4 G6 F2 | E4 D4 C4 A,4 | D16 | %10
w: |||Le-|vi- ta Lau-|ren-|ti- us bo\-|* num o- pus|o- pe- ra- tus|est,|
 z4 F8 F4 | A6 G2 F4 E4 | (D2 C2 B,2 C2 D2 E2 F2 G2 | A2 G2 F8) E4 | (F6 G2 A8) | z4 A8 A4 | %16
w: bo- num|o- pus o- pe-|ra\- * * * * * * *|* * * tus|est, * *|bo- num|
 B4 F4 G4 A4 | (E2 DE F8) E4 | (G6 F2 E8- | E8) z4 G4- | G4 G4 G4 A4 | G8 E4 A4- | A2 A2 G4 F4 E4 | %23
w: o- pus o- pe-|ra\- * * * tus|est, * *|* qui|* per si- gnum|cru- cis cae\-|* cos il- lu- mi-|
 F8 E4 A4- | A2 A2 D4 F4 F4 | (D2 E2 F8 E4) | F8 z4 F4- | F4 F4 F4 G4 | F4 E4 z4 F4- | %29
w: na- vit, cae-|cos il- lu- mi- na\-||vit, qui|* per si- gnum|cru- cis cae\-|
 F2 F2 E4 D4 C4 | D4 C4 z8 | z8 z4 F4- | F4 F4 D8- | D8 C4 =B,4 | C8 C4 C4 | C4 (D6 E2 F4) | %36
w: * cos il- lu- mi-|na- vit,|cae\-|* cos il\-|* lu- mi-|na- vit, et|the- sau\- * *|
 E4 C4 D4 E4 | F16- | F8 z8 | z8 z4 A4 | A4 G4 G6 G2 | C8 z8 | z4 F4 F4 (G4- | G2 A2 B4) A4 F4 | %44
w: ros Ec- cle- si-|ae||de-|dit pau- pe- ri-|bus,|et the- sau\-|* * * ros Ec-|
 G4 A4 B8 | z8 z4 G4 | G4 G4 F8 | E8 (D6 E2 | F4) A4 A4 A4 | G12 F4 | E4 F4 F4 (A4- | %51
w: cle- si- ae|de-|dit pau- pe-|ri- bus, *|* de- dit pau-|pe- ri-|bus, et the- sau\-|
 A2 B2 c4) B4 G4 | A4 A4 (c2 B2 A2 G2 | F4) C4 C4 C4 | G6 G2 E8 | z16 | D8 C4 C4 | B,6 A,2 G,8 | %58
w: * * * ros Ec-|cle- si- ae * * *|* de- dit pau-|pe- ri- bus,||de- dit pau-|pe- ri- bus,|
 (D6 E2 F4) D4 | C4 F8 E4 | F16 |] %61
w: de\- * * dit|pau- pe- ri-|bus.|
V:3
 c16 | d8 A4 A4 | c8 B8 | A8 z4 c4- | c4 c4 f6 e2 |[M:4/2][K:treble-8] d4 c4 B4 A4 | c8 z8 | z16 | %8
w: Le-|vi- ta Lau-|ren- ti-|us bo\-|* num o- pus|o- pe- ra- tus|est,||
 z16 | z16 | z8 c8 | d8 A8 | z8 f8- | f8 g8 | d4 d4 f8 | e8 d8 | z8 z4 c4- | c4 c4 g6 f2 | %18
w: ||le-|vi- ta,|le\-|* vi-|ta Lau- ren-|ti- us|bo\-|* num o- pus|
 e4 d4 c4 A4 | c4 B4 A4 c4- | c4 =B4 c8 | z16 | z4 c8 c4 | c4 d4 c8 | A4 B6 B2 A4 | G4 F4 G8 | %26
w: o- pe- ra- tus|est, o- pe ra\-|* tus est,||qui per|si- gnum cru-|cis cae- cos il-|lu- mi- na-|
 F16 | z16 | z4 c6 c2 B4 | A4 G4 A8 | F4 f6 f2 e4 | d4 c4 d8 | c8 z4 B4- | B2 B2 A4 G4 F4 | %34
w: vit,||cae- cos il-|lu- mi- na-|vit, cae- cos il-|lu- mi- na-|vit, cae\-|* cos il- lu- mi-|
 G8 F4 A4 | A4 (B6 c2 d4) | c4 A4 B4 c4 | F8 z8 | z8 z4 c4 | g4 g4 f8- | f4 _e4 d8 | z4 c4 c4 c4 | %42
w: na- vit, et|the- sau\- * *|ros Ec- cle- si-|ae|de-|dit pau- pe\-|* ri- bus,|de- dit pau-|
 (f6 =e2 d4) G4 | G8 z8 | z4 c4 g4 g4 | f12 _e4 | d8 z8 | z16 | z16 | z8 z4 c4 | c4 (d6 e2 f4) | %51
w: pe\- * * ri-|bus,|de- dit pau-|pe- ri-|bus,|||et|the- sau\- * *|
 e4 c4 d4 e4 | (f6 g2 a4) f4 | f4 f4 e8- | e4 d4 c8- | c16 | z16 | z8 z4 B4 | B4 B4 A8- | A8 G8 | %60
w: ros Ec- cle- si-|ae * * de-|dit pau- pe\-|* ri- bus,|||de-|dit pau- pe\-|* ri-|
 F16 |] %61
w: bus.|
V:4
 z16 | z8 F,8- | F,8 G,8 | D,4 D,4 F,8 | E,8 D,8 |[M:4/2] z16 | z16 | z16 | z4 F,8 F,4 | %9
w: |Le\-|* vi-|ta Lau- ren-|ti- us||||bo- num|
 B,6 A,2 G,4 F,4 | E,4 D,4 F,8 | z16 | z16 | z16 | z8 z4 A,4- | A,4 A,4 D6 C2 | B,4 A,4 G,4 F,4 | %17
w: o- pus o- pe-|ra- tus est,||||bo\-|* num o- pus|o- pe- ra- tus|
 A,8 G,8- | G,4 G,4 C6 B,2 | A,4 G,4 F,4 E,4 | G,8 z4 C4- | C4 C4 C4 D4 | C8 A,4 A,4- | %23
w: est, bo\-|* num o- pus|o- pe- ra- tus|est, qui|* per si- gnum|cru- cis cae\-|
 A,2 A,2 D,4 A,4 F,4 | (F,2 D,2 G,4) F,8 | z16 | z16 | z4 F,6 F,2 E,4 | D,4 C,4 D,8 | C,8 F,8- | %30
w: * cos il- lu- mi-|na\- * * vit,|||cae- cos il-|lu- mi- na-|vit, qui|
 F,4 F,4 F,4 G,4 | F,8 D,8 | F,8 B,,8 | B,,8 C,4 D,4 | C,8 F,8 | z16 | z16 | z4 A,4 A,4 (B,4- | %38
w: * per si- gnum|cru- cis|cae- cos|il- lu- mi-|na- vit,|||et the- sau\-|
 B,2 C2 D4) C4 A,4 | B,4 C4 F,8 | z4 C,4 G,4 G,4 | F,12 _E,4 | D,8 z8 | z16 | z16 | %45
w: * * * ros Ec-|cle- si- ae|de- dit pau-|pe- ri-|bus,|||
 z4 F,4 F,4 (G,4- | G,2 A,2 B,4) A,4 F,4 | G,4 A,4 B,4 D4 | D4 D4 C8- | C4 B,4 A,8 | z8 z4 A,4 | %51
w: et the- sau\-|* * * ros Ec-|cle- si- ae de-|dit pau- pe\-|* ri- bus,|de-|
 A,4 A,4 G,6 G,2 | F,16 | z4 A,4 A,4 A,4 | G,6 G,2 C,4 C,4 | C,4 (F,6 G,2 A,4) | F,4 D,4 E,4 F,4 | %57
w: dit pau- pe- ri-|bus,|de- dit pau-|pe- ri- bus, et|the- sau\- * *|ros Ec- cle- si-|
 G,4 B,4 B,4 (B,4 | G,8) (D,6 E,2 | F,8) C,8 | F,16 |] %61
w: ae de- dit pau\-|* pe\- *|* ri-|bus.|

